src/assets/icons/plane.svg

<svg width="100%" height="100%" viewBox="0 0 426 426" fill="none" xmlns="http://www.w3.org/2000/svg">
<path d="M420.853 21.5363C420.337 19.7489 419.385 18.5094 418.287 17.5034C416.488 13.877 412.224 11.151 407.836 11.9077C408.014 6.83743 403.624 1.71775 397.397 3.17731C333.397 18.1546 267.693 33.599 204.968 53.3277C159.419 67.6538 114.029 83.4597 68.92 99.1421C49.5012 105.892 22.147 111.755 5.59344 124.979C2.26791 127.635 2.07256 131.618 3.52537 135.036C0.323341 136.588 -1.48426 141.049 1.57406 144.739C22.6612 170.171 53.927 217.728 91.0871 224.817C86.7848 280.976 82.5005 342.111 104.477 394.855C107.068 401.073 113.78 403.428 119.164 398.733C121.203 396.955 123.006 394.994 124.94 393.135C139.708 394.48 157.665 380.565 169.11 373.431C185.069 363.477 200.367 352.465 215.4 341.184C222.224 336.062 232.23 330.365 238.675 323.415C255.61 334.477 273.468 343.688 293.163 348.084C326.288 355.476 330.777 342.837 344.921 315.455C370.604 265.736 387.573 209.559 405.533 156.613C420.016 113.906 433.769 66.21 420.853 21.5363ZM112.035 305.048C111.229 315.922 108.974 331.07 109.109 345.599C102.505 306.359 104.89 265.377 103.139 225.618C108.775 225.353 114.386 224.244 119.959 222.571C117.117 250.045 114.078 277.516 112.035 305.048ZM15.213 141.063C84.966 116.895 154.234 91.1774 224.681 68.9809C268.829 55.0702 321.588 51.2843 366.998 35.5525C353.025 46.5127 339.644 58.9526 324.458 68.4802C291.535 89.1363 257.155 107.381 223.244 126.33C193.523 142.938 169.24 167.66 141.606 187.452C86.8836 226.642 52.7459 177.065 15.213 141.063ZM317.825 111.277C317.549 109.099 317.281 106.918 317.145 104.722C316.974 101.935 317.028 99.1084 317.068 96.2904C326.975 90.8855 336.734 85.3684 345.985 79.4493C347.496 78.4837 349.228 77.4216 351.051 76.3124C344.746 83.0713 338.36 89.7807 331.828 96.4745C327.081 101.343 322.495 106.343 317.825 111.277ZM308.762 120.856C306.474 123.308 304.119 125.702 301.846 128.167C300.643 121.06 298.801 113.996 297.292 106.889C300.528 105.194 303.685 103.447 306.903 101.74C306.465 108.425 306.876 115.089 308.762 120.856ZM269.918 163.562C266.033 167.984 262.023 172.302 258.185 176.764C257.164 174.696 253.986 173.849 252.177 175.578C249.161 162.188 246.906 148.83 245.808 134.888C250.528 132.052 255.444 129.416 260.294 126.712C259.685 139.933 260.182 162.707 269.918 163.562ZM269.067 141.916C268.241 135.478 268.162 128.989 267.713 122.531C274.833 118.669 282.028 114.892 289.222 111.131C289.465 120.054 290.866 129.128 294.18 136.644C288.012 143.416 281.821 150.173 275.74 157.021C275.177 156.494 274.476 156.11 273.623 156.063C270.52 155.883 269.336 144.029 269.067 141.916ZM245.786 191.303C238.309 200.236 230.883 209.215 223.635 218.343C223.587 218.339 223.545 218.325 223.495 218.321C223.033 215.826 222.424 213.412 222.101 210.877C221.245 204.129 221.032 197.294 220.798 190.504C220.403 179.085 220.507 167.652 220.109 156.233C220.055 154.659 219.069 153.88 217.947 153.507C224.582 148.453 231.619 143.787 238.798 139.262C238.821 156.774 241.167 174.437 245.786 191.303ZM211.985 210.877C212.113 214.55 214.024 222.493 217.127 226.645C212.724 232.292 208.181 237.818 203.877 243.548C203.913 233.262 202.278 222.589 201.425 212.936C200.217 199.297 198.997 185.269 195.694 171.864C201.604 166.722 207.285 161.786 212.571 157.506C212.93 157.215 213.33 156.961 213.692 156.671C212.881 174.74 211.354 192.776 211.985 210.877ZM182.096 281.618C182.852 282.173 183.609 282.77 184.366 283.332C182.008 285.476 179.897 287.84 177.894 290.295C173.413 258.092 175.512 226.256 172.8 194.043C172.725 193.169 172.323 192.57 171.859 192.071C177.881 187.232 183.672 182.27 189.301 177.399C191.444 190.748 192.043 204.435 192.344 217.831C192.634 230.729 190.487 244.777 193.552 257.419C190.75 261.283 187.752 264.975 185.004 268.886C184.882 269.059 184.885 269.239 184.781 269.412C179.549 269.899 176.691 277.653 182.096 281.618ZM127.23 364.508C126.46 316.075 131.889 267.106 130.021 218.871C142.522 213.493 154.688 205.375 166.29 196.443C166.16 197.801 166.038 199.173 165.91 200.541C165.695 202.088 165.589 202.167 165.508 204.881C162.935 233.998 161.561 264.811 167.718 293.106C168.398 296.23 170.815 297.2 173.13 296.773C168.648 303.323 164.675 310.324 160.449 317.106C158.707 319.899 156.837 322.607 155.063 325.387C156.65 309.565 154.587 292.039 154.764 277.296C155.024 255.795 152.444 234.023 152.289 212.945C152.276 210.949 149.33 210.98 149.215 212.945C147.978 234.059 144.293 255.741 143.463 277.296C142.719 296.611 137.494 321.363 143.076 340.212C143.303 340.975 143.813 341.408 144.269 341.911C138.891 349.681 133.275 357.271 127.23 364.508ZM211.655 321.686C199.235 331.549 186.535 341.078 173.684 350.37C165.156 356.536 156.352 362.258 147.408 367.768C153.414 359.889 159.143 351.769 164.711 343.434C175.222 327.698 189.221 310.336 196.242 292.291C204.941 298.976 213.73 305.784 222.696 312.334C218.843 315.397 215.21 318.862 211.655 321.686ZM354.781 239.091C340.073 277.004 335.795 337.975 286.927 327.403C255.626 320.631 226.183 294.864 198.629 276.582C265.58 195.136 339.038 119.592 406.231 38.8803C416.331 104.087 377.381 180.832 354.781 239.091Z" fill="#444444"/>
<path d="M41.7681 329.725C38.6963 321.527 36.7068 313.001 35.73 304.304C35.0631 298.376 26.6898 298.149 26.3395 304.304C25.85 312.952 27.2512 321.103 29.3484 329.485C31.412 337.726 33.7361 347.496 38.7928 354.394C41.6513 358.29 50.0381 357.742 49.2432 351.563C48.2485 343.8 44.5075 337.041 41.7681 329.725Z" fill="#444444"/>
<path d="M30.0086 357.931C25.2774 349.6 19.2955 342.96 15.8779 333.787C11.7463 322.69 11.7058 310.789 13.5494 299.261C14.5059 293.292 6.45819 290.89 4.41707 296.744C-3.2422 318.687 0.747985 352.499 21.6532 366.284C26.9301 369.764 32.9165 363.05 30.0086 357.931Z" fill="#444444"/>
<path d="M225.512 375.263C224.549 371.682 220.374 370.121 217.213 371.886C213.503 373.957 212.711 376.891 210.793 380.48C208.963 383.909 206.545 386.886 203.881 389.693C198.003 395.89 190.281 399.937 182.662 403.574C177.098 406.226 181.05 415.545 186.856 413.522C195.894 410.369 204.014 405.961 211.422 399.885C217.761 394.68 227.87 384.054 225.512 375.263Z" fill="#444444"/>
<path d="M242.525 379.155C236.746 384.263 232.012 391.056 226.311 396.443C220.024 402.384 212.6 407.524 206.76 413.874C202.491 418.516 207.829 425.2 213.355 422.421C221.416 418.365 228.779 411.566 235.726 405.858C241.683 400.965 250.331 394.923 253.795 387.854C257.413 380.482 248.745 373.653 242.525 379.155Z" fill="#444444"/>
</svg>

<svg xmlns="http://www.w3.org/2000/svg" width="100%" height="100%" viewBox="0 0 426 426" fill="#444"><path d="M420.853 21.536c-.516-1.787-1.468-3.027-2.566-4.033-1.799-3.626-6.063-6.352-10.451-5.596.178-5.07-4.212-10.19-10.439-8.73-64 14.977-129.704 30.422-192.429 50.15C159.419 67.654 114.029 83.46 68.92 99.142c-19.419 6.75-46.773 12.613-63.327 25.837-3.326 2.656-3.521 6.639-2.068 10.057-3.202 1.552-5.01 6.013-1.951 9.703 21.087 25.432 52.353 72.989 89.513 80.078-4.302 56.159-8.587 117.294 13.39 170.038 2.591 6.218 9.303 8.573 14.687 3.878 2.039-1.778 3.842-3.739 5.776-5.598 14.768 1.345 32.725-12.57 44.17-19.704 15.959-9.954 31.257-20.966 46.29-32.247 6.824-5.122 16.83-10.819 23.275-17.769 16.935 11.062 34.793 20.273 54.488 24.669 33.125 7.392 37.614-5.247 51.758-32.629 25.683-49.719 42.652-105.896 60.612-158.842 14.483-42.707 28.236-90.403 15.32-135.077zM112.035 305.048c-.806 10.874-3.061 26.022-2.926 40.551-6.604-39.24-4.219-80.222-5.97-119.981 5.636-.265 11.247-1.374 16.82-3.047l-7.924 82.477zM15.213 141.063l209.468-72.082c44.148-13.911 96.907-17.697 142.317-33.428-13.973 10.96-27.354 23.4-42.54 32.928-32.923 20.656-67.303 38.901-101.214 57.85-29.721 16.608-54.004 41.33-81.638 61.122-54.722 39.19-88.86-10.387-126.393-46.389zm302.612-29.786c-.276-2.178-.544-4.359-.68-6.555-.171-2.787-.117-5.614-.077-8.432 9.907-5.405 19.666-10.922 28.917-16.841l5.066-3.137-19.223 20.162c-4.747 4.868-9.333 9.868-14.003 14.802zm-9.063 9.579l-6.916 7.311c-1.203-7.107-3.045-14.171-4.554-21.278l9.611-5.149c-.438 6.685-.027 13.349 1.859 19.116zm-38.844 42.706l-11.733 13.202c-1.021-2.068-4.199-2.915-6.008-1.186-3.016-13.39-5.271-26.748-6.369-40.69 4.72-2.836 9.636-5.472 14.486-8.176-.609 13.221-.112 35.995 9.624 36.85zm-.851-21.646c-.826-6.438-.905-12.927-1.354-19.385l21.509-11.4c.243 8.923 1.644 17.997 4.958 25.513l-18.44 20.377c-.563-.527-1.264-.911-2.117-.958-3.103-.18-4.287-12.034-4.556-14.147zm-23.281 49.387l-22.151 27.04c-.048-.004-.09-.018-.14-.022-.462-2.495-1.071-4.909-1.394-7.444-.856-6.748-1.069-13.583-1.303-20.373l-.689-34.271c-.054-1.574-1.04-2.353-2.162-2.726 6.635-5.054 13.672-9.72 20.851-14.245.023 17.512 2.369 35.175 6.988 52.041zm-33.801 19.574c.128 3.673 2.039 11.616 5.142 15.768l-13.25 16.903c.036-10.286-1.599-20.959-2.452-30.612-1.208-13.639-2.428-27.667-5.731-41.072l16.877-14.358c.359-.291.759-.545 1.121-.835-.811 18.069-2.338 36.105-1.707 54.206zm-29.889 70.741l2.27 1.714c-2.358 2.144-4.469 4.508-6.472 6.963-4.481-32.203-2.382-64.039-5.094-96.252-.075-.874-.477-1.473-.941-1.972 6.022-4.839 11.813-9.801 17.442-14.672 2.143 13.349 2.742 27.036 3.043 40.432.29 12.898-1.857 26.946 1.208 39.588l-8.548 11.467c-.122.173-.119.353-.223.526-5.232.487-8.09 8.241-2.685 12.206zm-54.866 82.89c-.77-48.433 4.659-97.402 2.791-145.637 12.501-5.378 24.667-13.496 36.269-22.428l-.38 4.098c-.215 1.547-.321 1.626-.402 4.34-2.573 29.117-3.947 59.93 2.21 88.225.68 3.124 3.097 4.094 5.412 3.667-4.482 6.55-8.455 13.551-12.681 20.333-1.742 2.793-3.612 5.501-5.386 8.281 1.587-15.822-.476-33.348-.299-48.091.26-21.501-2.32-43.273-2.475-64.351-.013-1.996-2.959-1.965-3.074 0-1.237 21.114-4.922 42.796-5.752 64.351-.744 19.315-5.969 44.067-.387 62.916.227.763.737 1.196 1.193 1.699-5.378 7.77-10.994 15.36-17.039 22.597zm84.425-42.822c-12.42 9.863-25.12 19.392-37.971 28.684-8.528 6.166-17.332 11.888-26.276 17.398 6.006-7.879 11.735-15.999 17.303-24.334 10.511-15.736 24.51-33.098 31.531-51.143l26.454 20.043c-3.853 3.063-7.486 6.528-11.041 9.352zm143.126-82.595c-14.708 37.913-18.986 98.884-67.854 88.312-31.301-6.772-60.744-32.539-88.298-50.821 66.951-81.446 140.409-156.99 207.602-237.702 10.1 65.207-28.85 141.952-51.45 200.211zM41.768 329.725c-3.072-8.198-5.061-16.724-6.038-25.421-.667-5.928-9.04-6.155-9.39 0-.489 8.648.912 16.799 3.009 25.181 2.064 8.241 4.388 18.011 9.444 24.909 2.858 3.896 11.245 3.348 10.45-2.831-.995-7.763-4.736-14.522-7.475-21.838zm-11.759 28.206c-4.731-8.331-10.713-14.971-14.131-24.144-4.132-11.097-4.172-22.998-2.328-34.526.957-5.969-7.091-8.371-9.132-2.517-7.659 21.943-3.669 55.755 17.236 69.54 5.277 3.48 11.263-3.234 8.355-8.353zm195.503 17.332c-.963-3.581-5.138-5.142-8.299-3.377-3.71 2.071-4.502 5.005-6.42 8.594-1.83 3.429-4.248 6.406-6.912 9.213-5.878 6.197-13.6 10.244-21.219 13.881-5.564 2.652-1.612 11.971 4.194 9.948 9.038-3.153 17.158-7.561 24.566-13.637 6.339-5.205 16.448-15.831 14.09-24.622zm17.013 3.892c-5.779 5.108-10.513 11.901-16.214 17.288-6.287 5.941-13.711 11.081-19.551 17.431-4.269 4.642 1.069 11.326 6.595 8.547 8.061-4.056 15.424-10.855 22.371-16.563 5.957-4.893 14.605-10.935 18.069-18.004 3.618-7.372-5.05-14.201-11.27-8.699z"/></svg>
